/* XPM */
static const char * const classic_AuthCode_xpm[] = {
/* columns rows colors chars-per-pixel */
"16 16 3 1",
/* colors */
" 	c None",
".	c #606060",
"+	c #8AA000",
/* pixels */
"                ",
"                ",
"    ........    ",
"   .++++++++.   ",
"  .++++++++++.  ",
"  .++......++.  ",
"  .++.     ...  ",
"  .++.          ",
"  .++.          ",
"  .++.     ...  ",
"  .++......++.  ",
"  .++++++++++.  ",
"   .++++++++.   ",
"    ........    ",
"                ",
"                "};
