/* XPM */
static const char * const AuthCode_xpm[] = {
/* columns rows colors chars-per-pixel */
"16 16 11 1",
/* colors */
" 	c None",
".	c #B97300",
"+	c #DC6A00",
"@	c #D4B200",
"#	c #FFD806",
"$	c #FFFBE0",
"%	c #001DF6",
"&	c #FFE974",
"*	c #F6A700",
"=	c #F1CB00",
"-	c #DE8000",
/* pixels */
"    .+++.       ",
"      +         ",
"     .+.        ",
"   +.@#@.+      ",
"  +@$$%$$@+     ",
"  .$$&%&$$.     ",
" +@$&&%&&$@+    ",
" .#$&&&%&$#.    ",
"  .$$&&&%$.     ",
" ************** ",
"*$%$%%$%%$$$$&&+",
"*%%&&%&&%&&&&&#+",
"*#%#%%#%%######+",
"*=%=%===%=====@.",
"*@%@%%@%%@%@%@%.",
" -+++++++++++.. "};
